X: 2642
T: Bang Up
R: hornpipe
M: 4/4
K: Dmajor
|:AG|FDFA dAFA|GBed cBAG|FAdc BAGF|E2EDE2 AG|
FDFA dAFA|GBed cBAG|FAdA FAEG|FD DED2:|
|:cd|edcB AGFE|FDEF GABc|defe gfed|c2 ABAB AG|
FDFA dAFA|GBed cBAG|FAdA FAEG|F2 D2D2:|

